X: 0812
T: Off She Goes/Follow Her over the Border
P: Off She Goes
C:Dale's Coll. ca. 1800
R:Jig (8x16)
B:RSCDS 8-12
Z:Anselm Lingnau <anselm@strathspey.org>
M:6/8
L:1/8
K:D
A|"D"F2A "G"G2B|"A7"ABc "D"d2z|"D"F2A "G"G2B|"D"AFD "A7"E2z|
  "D"F2A "G"G2B|"A7"ABc "D"d2e|f2d "G"g2f|"A7"edc "D"d2||
g|"D"faf d2f|"Em"gbg "A7"c2g|"D"faf d2f|"A7"edc d2g|
  "D"faf d2f|"A"gbg "A7"c2e|"Bm"d2f "D"a2f|"A7"gec "D"[d2F2]|]
%%center Book08/0812-Off_She_Goes_Follow_Her_over_the_Border-AL.abc

%%newpage
%%center OTHER TRANSCRIPTIONS
%%sep 3 1 500
%%sep 1 1 500

%%sep 1 1 500
%%sep 1 1 500

